Sources/FrostedUI/Resources/Icons.xcassets/wallet32.imageset/wallet-32.svg

<svg width="32" height="32" viewBox="0 0 32 32" fill="none" xmlns="http://www.w3.org/2000/svg" data-fui-icon="true">
  <path
    d="M23.332 5.58301C25.0347 5.58301 26.4147 6.96343 26.415 8.66602C26.415 8.78496 26.3842 8.89618 26.335 8.99609C27.8679 9.33282 29.0155 10.699 29.0156 12.333V23C29.0154 24.8869 27.4855 26.416 25.5986 26.416H6.26562C4.37894 26.4158 2.84881 24.8868 2.84863 23V8C2.8488 6.66557 3.9312 5.58321 5.26562 5.58301H23.332ZM4.34863 23C4.34881 24.0583 5.20735 24.9158 6.26562 24.916H25.5986C26.6571 24.916 27.5154 24.0584 27.5156 23V12.333C27.5155 11.2746 26.6571 10.416 25.5986 10.416H5.26562C4.94115 10.416 4.63131 10.3514 4.34863 10.2354V23ZM21.999 15.916C22.9652 15.9162 23.7487 16.6999 23.749 17.666C23.749 18.6324 22.9654 19.4159 21.999 19.416C21.0327 19.4158 20.249 18.6324 20.249 17.666C20.2494 16.6999 21.0329 15.9162 21.999 15.916ZM21.999 17.416C21.8613 17.4162 21.7494 17.5284 21.749 17.666C21.749 17.8039 21.8611 17.9158 21.999 17.916C22.1369 17.9159 22.249 17.804 22.249 17.666C22.2487 17.5283 22.1367 17.4162 21.999 17.416ZM5.26562 7.08301C4.75963 7.08321 4.3488 7.494 4.34863 8C4.34881 8.50599 4.75964 8.91582 5.26562 8.91602H24.9619C24.9341 8.83767 24.915 8.75387 24.915 8.66602C24.9147 7.79185 24.2063 7.08301 23.332 7.08301H5.26562Z"
    fill="currentColor"
  />
</svg>

<svg xmlns="http://www.w3.org/2000/svg" width="32" height="32" fill="none" data-fui-icon="true" viewBox="0 0 32 32"><path fill="currentColor" d="M23.332 5.583a3.083 3.083 0 0 1 3.083 3.083c0 .119-.03.23-.08.33a3.42 3.42 0 0 1 2.68 3.337V23a3.417 3.417 0 0 1-3.416 3.416H6.266A3.417 3.417 0 0 1 2.849 23V8a2.42 2.42 0 0 1 2.417-2.417zM4.349 23c0 1.058.858 1.916 1.917 1.916h19.333A1.917 1.917 0 0 0 27.516 23V12.333a1.917 1.917 0 0 0-1.917-1.917H5.266c-.325 0-.635-.065-.917-.18zm17.65-7.084a1.75 1.75 0 1 1-.002 3.502A1.75 1.75 0 0 1 22 15.916m0 1.5a.25.25 0 1 0 0 .5.25.25 0 0 0 0-.5M5.266 7.083a.917.917 0 1 0 0 1.833h19.696a.8.8 0 0 1-.047-.25c0-.874-.709-1.583-1.583-1.583z"/></svg>
